X:076
T:Littlehohone (?)
S:Midi file off website
M:4/4
L:1/8
K:Dm
(3DFA|B2 cB BABA|G^FGA BA z2|DEFD A<GF>E|(3DFA D>^c d2 (3DFA|
B2 cB BABA|G^FGA BA z2|DEFD A<GF>E|(3DFA D>^c d2||
A2|A=B^cA d2 de|dcBA BA z2|dcBA BAG^F|G2 F>E D2 (3DFA|
B2 cB BABA|G^FGA BA z2|DEFD A<GF>E|(3DFA D>^c d2||
<end>
<start>
